; generated by PrusaSlicer 2.4.2+win64 on 2023-06-05 at 09:05:52 UTC

; 

; external perimeters extrusion width = 0.45mm
; perimeters extrusion width = 0.45mm
; infill extrusion width = 0.45mm
; solid infill extrusion width = 0.45mm
; top infill extrusion width = 0.40mm
; support material extrusion width = 0.35mm
; first layer extrusion width = 0.42mm

M107
M190 S60 ; set bed temperature and wait for it to be reached
M104 S200 ; set temperature
;TYPE:Custom
G28 ; home all axes
G1 Z5 F5000 ; lift nozzle
M109 S200 ; set temperature and wait for it to be reached
G21 ; set units to millimeters
G90 ; use absolute coordinates
M82 ; use absolute distances for extrusion
G92 E0
; Filament gcode
; G28 ; BLTouch home XYZ axis
G1 X0 Y0 F4000 ; move to X0 Y0
;G92 E0 ; Reset Extruder
G1 Z2.0 F3000 ; Move Z Axis up little to prevent scratching of Heat Bed
G1 X0.1 Y20 Z0.3 F5000.0 ; Move to start position
G1 X0.1 Y200.0 Z0.3 F1500.0 E15 ; Draw the first line
G1 X0.4 Y200.0 Z0.3 F5000.0 ; Move to side a little
G1 X0.4 Y20 Z0.3 F1500.0 E30 ; Draw the second line
G92 E0 ; Reset Extruder
G1 Z2.0 F3000 ; Move Z Axis up little to prevent scratching of Heat Bed
M107
;LAYER_CHANGE
;Z:0.35
;HEIGHT:0.35
G1 Z.35 F7800
G1 X124.938 Y101.305
;TYPE:Skirt/Brim
;WIDTH:0.42
G1 F1800
G1 X127.201 Y98.845 E.16774
G1 X129.198 Y97.044 E.3027
G1 X131.868 Y95.054 E.4698
G1 X134.696 Y93.366 E.63509
G1 X137.636 Y91.992 E.79799
G1 X140.637 Y90.938 E.95759
G1 X143.653 Y90.199 E1.11343
G1 X146.635 Y89.761 E1.2647
G1 X150.122 Y89.603 E1.43988
G1 X153.034 Y89.761 E1.58623
G1 X155.429 Y90.09 E1.70756
G1 X159.032 Y90.938 E1.89333
G1 X162.033 Y91.992 E2.05292
G1 X164.404 Y93.071 E2.18365
G1 X167.801 Y95.054 E2.3811
G1 X170.471 Y97.044 E2.54819
G1 X172.468 Y98.845 E2.68315
G1 X175.145 Y101.814 E2.88379
G1 X176.721 Y103.974 E3.01798
G1 X178.41 Y106.802 E3.18327
G1 X180.015 Y110.327 E3.37767
G1 X180.837 Y112.743 E3.50575
G1 X181.576 Y115.759 E3.66159
G1 X182.014 Y118.741 E3.81285
G1 X182.173 Y121.653 E3.95921
G1 X182.51 Y178.205 E6.79734
G1 X182.356 Y181.148 E6.94525
G1 X181.913 Y184.216 E7.10083
G1 X181.202 Y187.148 E7.25222
G1 X180.042 Y190.438 E7.42732
G1 X178.804 Y193.081 E7.57379
G1 X177.28 Y195.684 E7.72514
G1 X175.466 Y198.2 E7.8808
G1 X173.364 Y200.59 E8.04055
G1 X170.99 Y202.8 E8.20331
G1 X168.364 Y204.791 E8.36874
G1 X165.521 Y206.519 E8.53567
G1 X162.498 Y207.954 E8.70362
G1 X159.972 Y208.875 E8.83857
G1 X156.753 Y209.719 E9.00558
G1 X153.498 Y210.225 E9.1709
G1 X150.259 Y210.398 E9.33368
G1 X146.468 Y210.187 E9.52422
G1 X144.008 Y209.806 E9.64915
G1 X141.079 Y209.096 E9.80041
G1 X138.316 Y208.15 E9.94695
G1 X135.662 Y206.964 E10.09282
G1 X132.544 Y205.175 E10.27328
G1 X130.023 Y203.359 E10.42919
G1 X128.091 Y201.691 E10.55728
G1 X125.424 Y198.882 E10.75166
G1 X123.436 Y196.259 E10.91683
G1 X122.023 Y193.988 E11.05107
G1 X120.272 Y190.391 E11.25181
G1 X119.351 Y187.865 E11.38674
G1 X118.507 Y184.648 E11.55366
G1 X118 Y181.391 E11.7191
G1 X117.828 Y178.15 E11.882
G1 X117.49 Y121.979 E14.70104
G1 X117.655 Y118.742 E14.86372
G1 X118.093 Y115.759 E15.01498
G1 X118.832 Y112.743 E15.17082
G1 X119.886 Y109.743 E15.33042
G1 X121.259 Y106.802 E15.49332
G1 X122.948 Y103.974 E15.65861
G1 X124.893 Y101.365 E15.82194
G92 E0
G1 X138.291 Y112.523 F7800
;TYPE:Perimeter
G1 F1800
G1 X139.298 Y111.405 E.07552
G1 X140.443 Y110.373 E.15283
G1 X141.681 Y109.47 E.22977
G1 X142.99 Y108.706 E.30582
G1 X144.349 Y108.087 E.38079
G1 X145.734 Y107.616 E.45419
G1 X147.126 Y107.289 E.52595
G1 X148.609 Y107.096 E.601
G1 X149.835 Y107.04 E.66257
G1 X151.173 Y107.101 E.72982
G1 X152.546 Y107.289 E.79936
G1 X153.935 Y107.616 E.87096
G1 X155.32 Y108.087 E.94436
G1 X156.679 Y108.706 E1.01933
G1 X157.988 Y109.47 E1.09538
G1 X159.226 Y110.373 E1.17233
G1 X160.371 Y111.405 E1.24964
G1 X161.402 Y112.549 E1.32695
G1 X162.305 Y113.788 E1.40389
G1 X163.069 Y115.097 E1.47994
G1 X163.689 Y116.456 E1.55491
G1 X164.159 Y117.841 E1.62831
G1 X164.486 Y119.229 E1.69991
G1 X164.675 Y120.602 E1.76945
G1 X164.735 Y121.941 E1.83671
G1 X164.675 Y123.281 E1.90401
G1 X164.486 Y124.654 E1.97355
G1 X164.159 Y126.042 E2.04515
G1 X163.689 Y127.427 E2.11855
G1 X163.069 Y128.786 E2.19352
G1 X162.305 Y130.095 E2.26957
G1 X161.402 Y131.334 E2.34651
G1 X160.371 Y132.478 E2.42382
G1 X159.226 Y133.51 E2.50114
G1 X157.988 Y134.413 E2.57808
G1 X156.679 Y135.177 E2.65413
G1 X155.32 Y135.796 E2.7291
G1 X153.935 Y136.267 E2.8025
G1 X152.546 Y136.594 E2.8741
G1 X151.173 Y136.782 E2.94366
G1 X149.835 Y136.842 E3.01089
G1 X148.496 Y136.782 E3.07812
G1 X147.123 Y136.594 E3.14769
G1 X145.734 Y136.267 E3.21928
G1 X144.349 Y135.796 E3.29268
G1 X142.99 Y135.177 E3.36765
G1 X141.681 Y134.413 E3.44371
G1 X140.443 Y133.51 E3.52065
G1 X139.298 Y132.478 E3.59796
G1 X138.267 Y131.334 E3.67527
G1 X137.364 Y130.095 E3.75221
G1 X136.6 Y128.786 E3.82826
G1 X135.98 Y127.427 E3.90323
G1 X135.51 Y126.042 E3.97663
G1 X135.183 Y124.654 E4.04823
G1 X134.995 Y123.281 E4.11778
G1 X134.934 Y121.941 E4.18508
G1 X134.995 Y120.602 E4.25233
G1 X135.183 Y119.229 E4.32187
G1 X135.51 Y117.841 E4.39347
G1 X135.98 Y116.456 E4.46687
G1 X136.6 Y115.097 E4.54184
G1 X137.364 Y113.788 E4.61789
G1 X138.244 Y112.581 E4.69286
G1 X138.535 Y112.767 F7800
G1 F1800
G1 X139.543 Y111.649 E4.76838
G1 X140.66 Y110.642 E4.8439
G1 X141.87 Y109.759 E4.91906
G1 X143.149 Y109.013 E4.99336
G1 X144.477 Y108.408 E5.06659
G1 X145.829 Y107.948 E5.13829
G1 X147.188 Y107.628 E5.20833
G1 X148.639 Y107.44 E5.28177
G1 X149.835 Y107.386 E5.34182
G1 X151.142 Y107.445 E5.4075
G1 X152.483 Y107.629 E5.47544
G1 X153.84 Y107.948 E5.54538
G1 X155.192 Y108.408 E5.61708
G1 X156.52 Y109.013 E5.69031
G1 X157.799 Y109.759 E5.76461
G1 X159.009 Y110.642 E5.83977
G1 X160.126 Y111.649 E5.91529
G1 X161.134 Y112.767 E5.99081
G1 X162.016 Y113.977 E6.06597
G1 X162.763 Y115.255 E6.14027
G1 X163.368 Y116.583 E6.2135
G1 X163.828 Y117.936 E6.28519
G1 X164.147 Y119.293 E6.35514
G1 X164.331 Y120.634 E6.42307
G1 X164.39 Y121.941 E6.48875
G1 X164.331 Y123.249 E6.55448
G1 X164.147 Y124.59 E6.62242
G1 X163.828 Y125.947 E6.69236
G1 X163.368 Y127.3 E6.76406
G1 X162.763 Y128.628 E6.83729
G1 X162.016 Y129.906 E6.91158
G1 X161.134 Y131.116 E6.98675
G1 X160.126 Y132.234 E7.06227
G1 X159.009 Y133.241 E7.13778
G1 X157.799 Y134.124 E7.21295
G1 X156.52 Y134.87 E7.28725
G1 X155.192 Y135.475 E7.36048
G1 X153.84 Y135.935 E7.43217
G1 X152.483 Y136.254 E7.50212
G1 X151.142 Y136.438 E7.57006
G1 X149.835 Y136.496 E7.63573
G1 X148.527 Y136.438 E7.70139
G1 X147.186 Y136.254 E7.76934
G1 X145.829 Y135.935 E7.83928
G1 X144.477 Y135.475 E7.91098
G1 X143.149 Y134.87 E7.98421
G1 X141.87 Y134.124 E8.05851
G1 X140.66 Y133.241 E8.13367
G1 X139.543 Y132.234 E8.20919
G1 X138.535 Y131.116 E8.28471
G1 X137.653 Y129.906 E8.35987
G1 X136.906 Y128.628 E8.43417
G1 X136.301 Y127.3 E8.5074
G1 X135.841 Y125.947 E8.5791
G1 X135.522 Y124.59 E8.64904
G1 X135.338 Y123.249 E8.71697
G1 X135.279 Y121.941 E8.7827
G1 X135.338 Y120.634 E8.84838
G1 X135.522 Y119.293 E8.91632
G1 X135.841 Y117.936 E8.98626
G1 X136.301 Y116.583 E9.05796
G1 X136.906 Y115.255 E9.13119
G1 X137.653 Y113.977 E9.20549
G1 X138.491 Y112.827 E9.27689
G1 X138.803 Y112.984 F7800
;TYPE:External perimeter
G1 F1800
G1 X139.787 Y111.893 E9.35061
G1 X140.878 Y110.91 E9.42433
G1 X142.059 Y110.048 E9.49772
G1 X143.308 Y109.319 E9.57026
G1 X144.604 Y108.729 E9.64175
G1 X145.925 Y108.28 E9.71175
G1 X147.25 Y107.968 E9.78007
G1 X148.669 Y107.784 E9.8519
G1 X149.835 Y107.731 E9.91045
G1 X151.111 Y107.789 E9.97455
G1 X152.42 Y107.968 E10.04088
G1 X153.744 Y108.28 E10.10917
G1 X155.065 Y108.729 E10.17916
G1 X156.361 Y109.319 E10.25065
G1 X157.61 Y110.048 E10.3232
G1 X158.791 Y110.91 E10.39658
G1 X159.882 Y111.893 E10.47031
G1 X160.866 Y112.984 E10.54403
G1 X161.727 Y114.166 E10.61742
G1 X162.456 Y115.414 E10.68996
G1 X163.047 Y116.71 E10.76145
G1 X163.496 Y118.031 E10.83145
G1 X163.807 Y119.356 E10.89973
G1 X163.987 Y120.665 E10.96606
G1 X164.045 Y121.941 E11.03017
G1 X163.987 Y123.218 E11.09432
G1 X163.807 Y124.527 E11.16065
G1 X163.496 Y125.852 E11.22894
G1 X163.047 Y127.173 E11.29893
G1 X162.456 Y128.469 E11.37042
G1 X161.727 Y129.717 E11.44296
G1 X160.866 Y130.899 E11.51635
G1 X159.882 Y131.99 E11.59007
G1 X158.791 Y132.973 E11.6638
G1 X157.61 Y133.835 E11.73719
G1 X156.361 Y134.564 E11.80973
G1 X155.065 Y135.154 E11.88122
G1 X153.744 Y135.603 E11.95121
G1 X152.42 Y135.915 E12.0195
G1 X151.11 Y136.094 E12.08583
G1 X149.835 Y136.151 E12.14993
G1 X148.559 Y136.094 E12.21403
G1 X147.249 Y135.915 E12.28036
G1 X145.925 Y135.603 E12.34865
G1 X144.604 Y135.154 E12.41864
G1 X143.308 Y134.564 E12.49013
G1 X142.059 Y133.835 E12.56268
G1 X140.878 Y132.973 E12.63606
G1 X139.787 Y131.99 E12.70979
G1 X138.803 Y130.899 E12.78351
G1 X137.942 Y129.717 E12.8569
G1 X137.213 Y128.469 E12.92944
G1 X136.622 Y127.173 E13.00093
G1 X136.173 Y125.852 E13.07093
G1 X135.862 Y124.527 E13.13921
G1 X135.682 Y123.218 E13.20554
G1 X135.624 Y121.941 E13.2697
G1 X135.682 Y120.665 E13.3338
G1 X135.862 Y119.356 E13.40013
G1 X136.173 Y118.031 E13.46842
G1 X136.622 Y116.71 E13.53841
G1 X137.213 Y115.414 E13.6099
G1 X137.942 Y114.166 E13.68244
G1 X138.759 Y113.045 E13.75207
G1 X138.625 Y112.517 F7800
G92 E0
G1 X130.349 Y106.122
;TYPE:Perimeter
G1 F1800
G1 X132.088 Y104.194 E.13029
G1 X134.015 Y102.455 E.26058
G1 X136.101 Y100.934 E.39012
G1 X138.308 Y99.646 E.51836
G1 X140.597 Y98.604 E.64456
G1 X142.929 Y97.811 E.7682
G1 X145.268 Y97.262 E.88878
G1 X147.58 Y96.944 E1.00592
G1 X149.835 Y96.842 E1.11917
G1 X152.089 Y96.944 E1.23241
G1 X154.401 Y97.262 E1.34955
G1 X156.74 Y97.811 E1.47013
G1 X159.072 Y98.604 E1.59377
G1 X161.361 Y99.646 E1.71998
G1 X163.568 Y100.934 E1.84821
G1 X165.654 Y102.455 E1.97776
G1 X167.581 Y104.194 E2.10804
G1 X169.32 Y106.122 E2.23833
G1 X170.842 Y108.207 E2.36788
G1 X172.129 Y110.414 E2.49611
G1 X173.171 Y112.703 E2.62232
G1 X173.965 Y115.035 E2.74596
G1 X174.514 Y117.374 E2.86654
G1 X174.832 Y119.687 E2.98368
G1 X174.934 Y121.941 E3.09692
G1 X174.832 Y124.196 E3.21022
G1 X174.514 Y126.509 E3.32736
G1 X173.965 Y128.848 E3.44794
G1 X173.171 Y131.18 E3.57158
G1 X172.129 Y133.469 E3.69778
G1 X170.842 Y135.676 E3.82602
G1 X169.32 Y137.761 E3.95556
G1 X167.581 Y139.689 E4.08585
G1 X165.654 Y141.428 E4.21614
G1 X163.568 Y142.949 E4.34568
G1 X161.361 Y144.237 E4.47392
G1 X159.072 Y145.279 E4.60013
G1 X156.74 Y146.072 E4.72376
G1 X154.401 Y146.621 E4.84435
G1 X152.089 Y146.939 E4.96147
G1 X149.835 Y147.04 E5.07473
G1 X147.58 Y146.939 E5.18798
G1 X145.268 Y146.621 E5.30511
G1 X142.929 Y146.072 E5.42569
G1 X140.597 Y145.279 E5.54933
G1 X138.308 Y144.237 E5.67553
G1 X136.101 Y142.949 E5.80377
G1 X134.015 Y141.428 E5.93331
G1 X132.088 Y139.689 E6.0636
G1 X130.349 Y137.761 E6.19389
G1 X128.827 Y135.676 E6.32343
G1 X127.54 Y133.469 E6.45167
G1 X126.498 Y131.18 E6.57788
G1 X125.704 Y128.848 E6.70151
G1 X125.155 Y126.509 E6.8221
G1 X124.837 Y124.196 E6.93923
G1 X124.735 Y121.941 E7.05253
G1 X124.837 Y119.687 E7.16578
G1 X125.155 Y117.374 E7.28291
G1 X125.704 Y115.035 E7.4035
G1 X126.498 Y112.703 E7.52713
G1 X127.54 Y110.414 E7.65334
G1 X128.827 Y108.207 E7.78158
G1 X130.305 Y106.183 E7.90735
G1 X130.081 Y105.904 F7800
G1 F1800
G1 X131.843 Y103.95 E8.03943
G1 X133.798 Y102.187 E8.17151
G1 X135.912 Y100.645 E8.30284
G1 X138.149 Y99.339 E8.43283
G1 X140.469 Y98.283 E8.56077
G1 X142.834 Y97.479 E8.68611
G1 X145.205 Y96.922 E8.80835
G1 X147.549 Y96.6 E8.9271
G1 X149.835 Y96.496 E9.04192
G1 X152.12 Y96.6 E9.15674
G1 X154.464 Y96.922 E9.27548
G1 X156.835 Y97.479 E9.39772
G1 X159.2 Y98.283 E9.52306
G1 X161.52 Y99.339 E9.651
G1 X163.757 Y100.645 E9.781
G1 X165.871 Y102.187 E9.91232
G1 X167.826 Y103.95 E10.0444
G1 X169.588 Y105.904 E10.17648
G1 X171.131 Y108.018 E10.3078
G1 X172.436 Y110.255 E10.4378
G1 X173.492 Y112.576 E10.56574
G1 X174.296 Y114.94 E10.69108
G1 X174.853 Y117.311 E10.81332
G1 X175.175 Y119.655 E10.93206
G1 X175.279 Y121.941 E11.04688
G1 X175.175 Y124.228 E11.16175
G1 X174.853 Y126.572 E11.2805
G1 X174.296 Y128.943 E11.40274
G1 X173.492 Y131.307 E11.52808
G1 X172.436 Y133.628 E11.65602
G1 X171.131 Y135.865 E11.78601
G1 X169.588 Y137.979 E11.91734
G1 X167.826 Y139.933 E12.04942
G1 X165.871 Y141.696 E12.18149
G1 X163.757 Y143.238 E12.31282
G1 X161.52 Y144.544 E12.44282
G1 X159.2 Y145.6 E12.57076
G1 X156.835 Y146.404 E12.6961
G1 X154.464 Y146.961 E12.81834
G1 X152.12 Y147.283 E12.93707
G1 X149.835 Y147.386 E13.0519
G1 X147.549 Y147.283 E13.16672
G1 X145.205 Y146.961 E13.28546
G1 X142.834 Y146.404 E13.4077
G1 X140.469 Y145.6 E13.53304
G1 X138.149 Y144.544 E13.66098
G1 X135.912 Y143.238 E13.79097
G1 X133.798 Y141.696 E13.9223
G1 X131.843 Y139.933 E14.05438
G1 X130.081 Y137.979 E14.18646
G1 X128.538 Y135.865 E14.31778
G1 X127.233 Y133.628 E14.44778
G1 X126.177 Y131.307 E14.57572
G1 X125.373 Y128.943 E14.70106
G1 X124.816 Y126.572 E14.8233
G1 X124.494 Y124.228 E14.94204
G1 X124.39 Y121.941 E15.05691
G1 X124.494 Y119.655 E15.17173
G1 X124.816 Y117.311 E15.29047
G1 X125.373 Y114.94 E15.41271
G1 X126.177 Y112.576 E15.53805
G1 X127.233 Y110.255 E15.66599
G1 X128.538 Y108.018 E15.79599
G1 X130.037 Y105.965 E15.92355
G1 X129.813 Y105.687 F7800
;TYPE:External perimeter
G1 F1800
G1 X131.599 Y103.706 E16.05742
G1 X133.58 Y101.919 E16.19129
G1 X135.723 Y100.356 E16.32439
G1 X137.99 Y99.033 E16.45615
G1 X140.342 Y97.962 E16.58583
G1 X142.738 Y97.147 E16.71287
G1 X145.142 Y96.583 E16.83676
G1 X147.518 Y96.256 E16.95711
G1 X149.835 Y96.151 E17.07351
G1 X152.151 Y96.256 E17.1899
G1 X154.527 Y96.583 E17.31025
G1 X156.931 Y97.147 E17.43415
G1 X159.327 Y97.962 E17.56119
G1 X161.679 Y99.033 E17.69086
G1 X163.946 Y100.356 E17.82262
G1 X166.089 Y101.919 E17.95573
G1 X168.07 Y103.706 E18.0896
G1 X169.856 Y105.687 E18.22346
G1 X171.42 Y107.829 E18.35657
G1 X172.743 Y110.097 E18.48833
G1 X173.813 Y112.448 E18.618
G1 X174.628 Y114.845 E18.74504
G1 X175.193 Y117.248 E18.86894
G1 X175.519 Y119.624 E18.98929
G1 X175.624 Y121.941 E19.10568
G1 X175.519 Y124.259 E19.22213
G1 X175.193 Y126.635 E19.34248
G1 X174.628 Y129.038 E19.46637
G1 X173.813 Y131.435 E19.59341
G1 X172.743 Y133.786 E19.72309
G1 X171.42 Y136.054 E19.85485
G1 X169.856 Y138.196 E19.98795
G1 X168.07 Y140.177 E20.12182
G1 X166.089 Y141.964 E20.25569
G1 X163.946 Y143.527 E20.38879
G1 X161.679 Y144.85 E20.52055
G1 X159.327 Y145.921 E20.65023
G1 X156.931 Y146.736 E20.77727
G1 X154.527 Y147.3 E20.90117
G1 X152.151 Y147.627 E21.02151
G1 X149.835 Y147.731 E21.13791
G1 X147.518 Y147.627 E21.2543
G1 X145.142 Y147.3 E21.37465
G1 X142.738 Y146.736 E21.49855
G1 X140.342 Y145.921 E21.62559
G1 X137.99 Y144.85 E21.75526
G1 X135.723 Y143.527 E21.88702
G1 X133.58 Y141.964 E22.02013
G1 X131.599 Y140.177 E22.15399
G1 X129.813 Y138.196 E22.28786
G1 X128.249 Y136.054 E22.42097
G1 X126.926 Y133.786 E22.55272
G1 X125.856 Y131.435 E22.6824
G1 X125.041 Y129.038 E22.80944
G1 X124.476 Y126.635 E22.93334
G1 X124.15 Y124.259 E23.05369
G1 X124.045 Y121.941 E23.17013
G1 X124.15 Y119.624 E23.28653
G1 X124.476 Y117.248 E23.40687
G1 X125.041 Y114.845 E23.53077
G1 X125.856 Y112.448 E23.65781
G1 X126.926 Y110.097 E23.78749
G1 X128.249 Y107.829 E23.91925
G1 X129.769 Y105.747 E24.04859
G1 X130.306 Y105.766 F7800
G92 E0
G1 X163.668 Y101.135
;TYPE:Solid infill
;WIDTH:0.420103
G1 F1800
G1 X169.93 Y107.396 E.44453
G1 X170.625 Y108.349 E.50372
G1 X170.948 Y108.902 E.53587
G1 X162.873 Y100.828 E1.1091
G1 X161.702 Y100.144 E1.17719
G1 X171.631 Y110.074 E1.88214
G1 X171.899 Y110.533 E1.90884
G1 X172.147 Y111.077 E1.93886
G1 X160.698 Y99.628 E2.75167
G1 X159.803 Y99.221 E2.80106
G1 X172.555 Y111.973 E3.70636
G1 X172.95 Y112.856 E3.75494
G1 X158.92 Y98.826 E4.75102
G1 X158.18 Y98.574 E4.79024
G1 X173.201 Y113.595 E5.85668
G1 X173.453 Y114.335 E5.89589
G1 X157.441 Y98.322 E7.0327
G1 X156.701 Y98.071 E7.07191
G1 X173.705 Y115.074 E8.27908
G1 X173.859 Y115.717 E8.31222
G1 X156.059 Y97.917 E9.57592
G1 X155.421 Y97.767 E9.6088
G1 X174.009 Y116.354 E10.9284
G1 X174.158 Y116.992 E10.96128
G1 X154.784 Y97.617 E12.33677
G1 X154.17 Y97.491 E12.36825
G1 X174.285 Y117.606 E13.79631
G1 X174.362 Y118.172 E13.82497
G1 X153.604 Y97.413 E15.2987
