; generated by PrusaSlicer 2.4.2+win64 on 2023-06-07 at 03:52:04 UTC

; 

; external perimeters extrusion width = 0.45mm
; perimeters extrusion width = 0.45mm
; infill extrusion width = 0.45mm
; solid infill extrusion width = 0.45mm
; top infill extrusion width = 0.40mm
; support material extrusion width = 0.35mm
; first layer extrusion width = 0.42mm

M107
M190 S60 ; set bed temperature and wait for it to be reached
M104 S200 ; set temperature
;TYPE:Custom
G28 ; home all axes
G1 Z5 F5000 ; lift nozzle
M109 S200 ; set temperature and wait for it to be reached
G21 ; set units to millimeters
G90 ; use absolute coordinates
M82 ; use absolute distances for extrusion
G92 E0
; Filament gcode
; G28 ; BLTouch home XYZ axis
G1 X0 Y0 F4000 ; move to X0 Y0
;G92 E0 ; Reset Extruder
G1 Z2.0 F3000 ; Move Z Axis up little to prevent scratching of Heat Bed
G1 X0.1 Y20 Z0.3 F5000.0 ; Move to start position
G1 X0.1 Y200.0 Z0.3 F1500.0 E15 ; Draw the first line
G1 X0.4 Y200.0 Z0.3 F5000.0 ; Move to side a little
G1 X0.4 Y20 Z0.3 F1500.0 E30 ; Draw the second line
G92 E0 ; Reset Extruder
G1 Z2.0 F3000 ; Move Z Axis up little to prevent scratching of Heat Bed
M107
;LAYER_CHANGE
;Z:0.35
;HEIGHT:0.35
G1 Z.35 F7800
G1 X124.829 Y101.428
;TYPE:Skirt/Brim
;WIDTH:0.42
G1 F1800
G1 X127.081 Y98.957 E.16778
G1 X129.579 Y96.727 E.33581
G1 X132.273 Y94.782 E.50258
G1 X135.12 Y93.139 E.66754
G1 X138.075 Y91.812 E.83011
G1 X141.081 Y90.805 E.9892
G1 X144.093 Y90.112 E1.14433
G1 X147.068 Y89.717 E1.29494
G1 X148.668 Y89.621 E1.37539
G1 X151.001 Y89.621 E1.49243
G1 X152.885 Y89.742 E1.58718
G1 X155.864 Y90.165 E1.73821
G1 X158.588 Y90.805 E1.87863
G1 X160.384 Y91.369 E1.97309
G1 X162.939 Y92.375 E2.1109
G1 X164.834 Y93.287 E2.21645
G1 X167.396 Y94.782 E2.36531
G1 X169.023 Y95.909 E2.46465
G1 X171.249 Y97.708 E2.6083
G1 X172.819 Y99.187 E2.71655
G1 X174.84 Y101.428 E2.86796
G1 X175.867 Y102.752 E2.95207
G1 X176.994 Y104.38 E3.05141
G1 X178.489 Y106.942 E3.20027
G1 X179.401 Y108.836 E3.30582
G1 X180.355 Y111.246 E3.43588
G1 X180.97 Y113.187 E3.53809
G1 X181.61 Y115.911 E3.67851
G1 X182.033 Y118.891 E3.82954
G1 X182.155 Y120.775 E3.92429
G1 X182.51 Y178.273 E6.80993
G1 X182.32 Y181.55 E6.97469
G1 X181.883 Y184.396 E7.11919
G1 X181.122 Y187.436 E7.27645
G1 X180.077 Y190.362 E7.4324
G1 X178.914 Y192.881 E7.57162
G1 X177.29 Y195.669 E7.73354
G1 X175.613 Y198.023 E7.87862
G1 X173.355 Y200.599 E8.05053
G1 X171.156 Y202.667 E8.20199
G1 X168.704 Y204.564 E8.3576
G1 X165.726 Y206.414 E8.53352
G1 X162.906 Y207.789 E8.69098
G1 X159.617 Y208.992 E8.86674
G1 X156.607 Y209.754 E9.02258
G1 X153.169 Y210.264 E9.19698
G1 X149.776 Y210.4 E9.36742
G1 X146.782 Y210.227 E9.51792
G1 X144.059 Y209.815 E9.65614
G1 X140.493 Y208.918 E9.84067
G1 X138.127 Y208.079 E9.96663
G1 X135.237 Y206.749 E10.12632
G1 X132.788 Y205.338 E10.26813
G1 X130.421 Y203.675 E10.4133
G1 X127.616 Y201.237 E10.59986
G1 X125.73 Y199.248 E10.73741
G1 X123.625 Y196.544 E10.9094
G1 X121.685 Y193.372 E11.09599
G1 X120.411 Y190.739 E11.24277
G1 X119.372 Y187.923 E11.39344
G1 X118.378 Y183.996 E11.59671
G1 X117.953 Y180.963 E11.7504
G1 X117.829 Y178.186 E11.88992
G1 X117.491 Y121.799 E14.71982
G1 X117.636 Y118.891 E14.86592
G1 X118.059 Y115.911 E15.01696
G1 X118.783 Y112.892 E15.17279
G1 X119.82 Y109.891 E15.33213
G1 X121.18 Y106.942 E15.49514
G1 X122.854 Y104.106 E15.66038
G1 X124.794 Y101.476 E15.82438
G92 E0
G1 X138.258 Y112.563 F7800
;TYPE:Perimeter
G1 F1800
G1 X138.828 Y111.901 E.04384
G1 X139.299 Y111.406 E.07816
G1 X139.795 Y110.934 E.11249
G1 X140.441 Y110.376 E.15536
G1 X140.983 Y109.958 E.18972
G1 X141.68 Y109.472 E.23235
G1 X142.256 Y109.116 E.26632
G1 X142.989 Y108.708 E.30842
G1 X143.589 Y108.416 E.34193
G1 X144.348 Y108.088 E.3834
G1 X144.963 Y107.862 E.4163
G1 X145.732 Y107.617 E.45681
G1 X146.351 Y107.456 E.4889
G1 X147.121 Y107.29 E.52844
G1 X147.736 Y107.192 E.55966
G1 X148.496 Y107.102 E.5981
G1 X149.245 Y107.054 E.63574
G1 X149.837 Y107.041 E.66545
G1 X150.575 Y107.061 E.70253
G1 X151.175 Y107.102 E.7327
G1 X151.933 Y107.192 E.77103
G1 X152.548 Y107.29 E.80225
G1 X153.318 Y107.456 E.84179
G1 X153.937 Y107.617 E.87388
G1 X154.706 Y107.862 E.91439
G1 X155.321 Y108.088 E.94729
G1 X156.08 Y108.416 E.98876
G1 X156.68 Y108.708 E1.02227
G1 X157.413 Y109.116 E1.06437
G1 X157.989 Y109.472 E1.09834
G1 X158.686 Y109.958 E1.14097
G1 X159.228 Y110.376 E1.17533
G1 X159.874 Y110.934 E1.2182
G1 X160.37 Y111.406 E1.25253
G1 X160.841 Y111.901 E1.28685
G1 X161.4 Y112.548 E1.32973
G1 X161.818 Y113.09 E1.36408
G1 X162.304 Y113.787 E1.40672
G1 X162.66 Y114.362 E1.44068
G1 X163.068 Y115.095 E1.48279
G1 X163.36 Y115.696 E1.51629
G1 X163.688 Y116.454 E1.55777
G1 X163.913 Y117.07 E1.59066
G1 X164.158 Y117.839 E1.63118
G1 X164.319 Y118.458 E1.66326
G1 X164.485 Y119.228 E1.7028
G1 X164.584 Y119.842 E1.73402
G1 X164.674 Y120.603 E1.77246
G1 X164.721 Y121.351 E1.81011
G1 X164.735 Y121.943 E1.83982
G1 X164.714 Y122.683 E1.87694
G1 X164.674 Y123.282 E1.90711
G1 X164.584 Y124.041 E1.94545
G1 X164.485 Y124.655 E1.97666
G1 X164.319 Y125.425 E2.01621
G1 X164.158 Y126.044 E2.04829
G1 X163.913 Y126.813 E2.0888
G1 X163.688 Y127.429 E2.1217
G1 X163.36 Y128.187 E2.16318
G1 X163.068 Y128.788 E2.19668
G1 X162.66 Y129.521 E2.23878
G1 X162.304 Y130.096 E2.27275
G1 X161.818 Y130.793 E2.31538
G1 X161.4 Y131.335 E2.34974
G1 X160.841 Y131.982 E2.39261
G1 X160.37 Y132.477 E2.42694
G1 X159.874 Y132.949 E2.46126
G1 X159.228 Y133.507 E2.50414
G1 X158.686 Y133.925 E2.5385
G1 X157.989 Y134.411 E2.58113
G1 X157.413 Y134.767 E2.6151
G1 X156.68 Y135.175 E2.6572
G1 X156.08 Y135.467 E2.6907
G1 X155.321 Y135.795 E2.73218
G1 X154.706 Y136.021 E2.76508
G1 X153.937 Y136.266 E2.80559
G1 X153.318 Y136.427 E2.83767
G1 X152.548 Y136.593 E2.87721
G1 X151.933 Y136.691 E2.90843
G1 X151.173 Y136.781 E2.94688
G1 X150.423 Y136.829 E2.98456
G1 X149.832 Y136.841 E3.01423
G1 X149.095 Y136.822 E3.05127
G1 X148.494 Y136.781 E3.08147
G1 X147.736 Y136.691 E3.11981
G1 X147.121 Y136.593 E3.15102
G1 X146.351 Y136.427 E3.19056
G1 X145.732 Y136.266 E3.22265
G1 X144.963 Y136.021 E3.26316
G1 X144.348 Y135.795 E3.29606
G1 X143.589 Y135.467 E3.33754
G1 X142.989 Y135.175 E3.37104
G1 X142.256 Y134.767 E3.41314
G1 X141.68 Y134.411 E3.44711
G1 X140.983 Y133.925 E3.48974
G1 X140.441 Y133.507 E3.5241
G1 X139.795 Y132.949 E3.56697
G1 X139.299 Y132.477 E3.6013
G1 X138.828 Y131.982 E3.63563
G1 X138.269 Y131.335 E3.6785
G1 X137.851 Y130.793 E3.71286
G1 X137.365 Y130.096 E3.75549
G1 X137.009 Y129.521 E3.78946
G1 X136.601 Y128.788 E3.83156
G1 X136.309 Y128.187 E3.86506
G1 X135.981 Y127.429 E3.90654
G1 X135.756 Y126.813 E3.93943
G1 X135.511 Y126.044 E3.97995
G1 X135.35 Y125.425 E4.01203
G1 X135.184 Y124.655 E4.05157
G1 X135.085 Y124.041 E4.08279
G1 X134.995 Y123.28 E4.12123
G1 X134.948 Y122.532 E4.15888
G1 X134.934 Y121.939 E4.18864
G1 X134.955 Y121.2 E4.22571
G1 X134.995 Y120.601 E4.25589
G1 X135.085 Y119.842 E4.29422
G1 X135.184 Y119.228 E4.32544
G1 X135.35 Y118.458 E4.36498
G1 X135.511 Y117.839 E4.39706
G1 X135.756 Y117.07 E4.43757
G1 X135.981 Y116.454 E4.47047
G1 X136.309 Y115.696 E4.51195
G1 X136.601 Y115.095 E4.54545
G1 X137.009 Y114.362 E4.58756
G1 X137.365 Y113.787 E4.62152
G1 X137.851 Y113.09 E4.66415
G1 X138.221 Y112.61 E4.69453
G1 X138.531 Y112.774 F7800
G1 F1800
G1 X139.083 Y112.133 E4.737
G1 X139.543 Y111.65 E4.77047
G1 X140.026 Y111.19 E4.80395
G1 X140.659 Y110.643 E4.84593
G1 X141.187 Y110.236 E4.87939
G1 X141.87 Y109.76 E4.92113
G1 X142.43 Y109.413 E4.95423
G1 X143.148 Y109.014 E4.99545
G1 X143.733 Y108.729 E5.02809
G1 X144.476 Y108.408 E5.06869
G1 X145.075 Y108.189 E5.10072
G1 X145.828 Y107.949 E5.1404
G1 X146.431 Y107.792 E5.17165
G1 X147.185 Y107.629 E5.21036
G1 X147.783 Y107.533 E5.24077
G1 X148.527 Y107.445 E5.27838
G1 X149.26 Y107.399 E5.3152
G1 X149.836 Y107.386 E5.34412
G1 X150.559 Y107.406 E5.38042
G1 X151.143 Y107.445 E5.4098
G1 X151.886 Y107.533 E5.44734
G1 X152.484 Y107.629 E5.47775
G1 X153.238 Y107.792 E5.51646
G1 X153.841 Y107.949 E5.54772
G1 X154.594 Y108.189 E5.58739
G1 X155.193 Y108.408 E5.61942
G1 X155.936 Y108.729 E5.66003
G1 X156.521 Y109.014 E5.69267
G1 X157.239 Y109.413 E5.73389
G1 X157.799 Y109.76 E5.76699
G1 X158.482 Y110.236 E5.80872
G1 X159.01 Y110.643 E5.84218
G1 X159.642 Y111.19 E5.88416
G1 X160.126 Y111.65 E5.91764
G1 X160.586 Y112.133 E5.95112
G1 X161.132 Y112.766 E5.9931
G1 X161.54 Y113.294 E6.02656
G1 X162.015 Y113.976 E6.0683
G1 X162.362 Y114.537 E6.10139
G1 X162.762 Y115.255 E6.14262
G1 X163.046 Y115.84 E6.17525
G1 X163.367 Y116.582 E6.21586
G1 X163.587 Y117.181 E6.24789
G1 X163.827 Y117.935 E6.28757
G1 X163.984 Y118.537 E6.31882
G1 X164.146 Y119.292 E6.35753
G1 X164.242 Y119.89 E6.38794
G1 X164.33 Y120.634 E6.42555
G1 X164.377 Y121.366 E6.46236
G1 X164.39 Y121.942 E6.49129
G1 X164.37 Y122.666 E6.52763
G1 X164.33 Y123.25 E6.55702
G1 X164.242 Y123.993 E6.59456
G1 X164.146 Y124.591 E6.62497
G1 X163.984 Y125.346 E6.66368
G1 X163.827 Y125.948 E6.69493
G1 X163.587 Y126.702 E6.73461
G1 X163.367 Y127.301 E6.76664
G1 X163.046 Y128.043 E6.80725
G1 X162.762 Y128.628 E6.83989
G1 X162.362 Y129.346 E6.88111
G1 X162.015 Y129.907 E6.9142
G1 X161.54 Y130.589 E6.95594
G1 X161.132 Y131.117 E6.9894
G1 X160.586 Y131.75 E7.03138
G1 X160.126 Y132.234 E7.06486
G1 X159.642 Y132.693 E7.09834
G1 X159.01 Y133.24 E7.14032
G1 X158.482 Y133.647 E7.17378
G1 X157.799 Y134.123 E7.21552
G1 X157.239 Y134.47 E7.24861
G1 X156.521 Y134.869 E7.28983
G1 X155.936 Y135.154 E7.32247
G1 X155.193 Y135.475 E7.36308
G1 X154.594 Y135.694 E7.39511
G1 X153.841 Y135.934 E7.43479
G1 X153.238 Y136.091 E7.46604
G1 X152.484 Y136.254 E7.50475
G1 X151.886 Y136.35 E7.53516
G1 X151.142 Y136.438 E7.57277
G1 X150.409 Y136.484 E7.60961
G1 X149.833 Y136.496 E7.63851
G1 X149.111 Y136.477 E7.67478
G1 X148.526 Y136.438 E7.70419
G1 X147.783 Y136.35 E7.74173
G1 X147.185 Y136.254 E7.77213
G1 X146.431 Y136.091 E7.81085
G1 X145.828 Y135.934 E7.8421
G1 X145.075 Y135.694 E7.88177
G1 X144.476 Y135.475 E7.91381
G1 X143.733 Y135.154 E7.95441
G1 X143.148 Y134.869 E7.98705
G1 X142.43 Y134.47 E8.02827
G1 X141.87 Y134.123 E8.06137
G1 X141.187 Y133.647 E8.10311
G1 X140.659 Y133.24 E8.13657
G1 X140.027 Y132.693 E8.17855
G1 X139.543 Y132.234 E8.21202
G1 X139.083 Y131.75 E8.2455
G1 X138.537 Y131.117 E8.28748
G1 X138.129 Y130.589 E8.32094
G1 X137.654 Y129.907 E8.36268
G1 X137.307 Y129.346 E8.39578
G1 X136.907 Y128.628 E8.437
G1 X136.623 Y128.043 E8.46964
G1 X136.302 Y127.301 E8.51024
G1 X136.082 Y126.702 E8.54228
G1 X135.842 Y125.948 E8.58195
G1 X135.685 Y125.346 E8.6132
G1 X135.523 Y124.591 E8.65192
G1 X135.427 Y123.993 E8.68232
G1 X135.339 Y123.249 E8.71993
G1 X135.292 Y122.517 E8.75675
G1 X135.279 Y121.94 E8.78573
G1 X135.299 Y121.217 E8.82202
G1 X135.339 Y120.633 E8.8514
G1 X135.427 Y119.89 E8.88895
G1 X135.523 Y119.292 E8.91935
G1 X135.685 Y118.537 E8.95807
G1 X135.842 Y117.935 E8.98932
G1 X136.082 Y117.182 E9.02899
G1 X136.302 Y116.582 E9.06103
G1 X136.623 Y115.84 E9.10163
G1 X136.907 Y115.255 E9.13427
G1 X137.307 Y114.537 E9.17549
G1 X137.654 Y113.976 E9.20858
G1 X138.129 Y113.294 E9.25033
G1 X138.494 Y112.821 E9.28029
G1 X138.804 Y112.984 F7800
;TYPE:External perimeter
G1 F1800
G1 X139.339 Y112.365 E9.32138
G1 X139.787 Y111.893 E9.35401
G1 X140.258 Y111.446 E9.38663
G1 X140.878 Y110.91 E9.42772
G1 X141.392 Y110.514 E9.46028
G1 X142.059 Y110.048 E9.50113
G1 X142.605 Y109.711 E9.53335
G1 X143.307 Y109.32 E9.5737
G1 X143.877 Y109.043 E9.60547
G1 X144.604 Y108.729 E9.6452
G1 X145.187 Y108.515 E9.67637
G1 X145.924 Y108.28 E9.71521
G1 X146.511 Y108.127 E9.74563
G1 X147.249 Y107.969 E9.78351
G1 X147.831 Y107.875 E9.81311
G1 X148.559 Y107.789 E9.84988
G1 X149.274 Y107.744 E9.88587
G1 X149.835 Y107.731 E9.91402
G1 X150.542 Y107.75 E9.94953
G1 X151.111 Y107.789 E9.97813
G1 X151.838 Y107.875 E10.01488
G1 X152.42 Y107.969 E10.04447
G1 X153.158 Y108.127 E10.08236
G1 X153.745 Y108.28 E10.11278
G1 X154.482 Y108.515 E10.15162
G1 X155.065 Y108.729 E10.18279
G1 X155.792 Y109.043 E10.22252
G1 X156.362 Y109.32 E10.25429
G1 X157.064 Y109.711 E10.29463
G1 X157.61 Y110.048 E10.32685
G1 X158.277 Y110.514 E10.3677
G1 X158.791 Y110.91 E10.40027
G1 X159.411 Y111.446 E10.44135
G1 X159.882 Y111.893 E10.47398
G1 X160.33 Y112.365 E10.50661
G1 X160.865 Y112.984 E10.54769
G1 X161.261 Y113.498 E10.58026
G1 X161.727 Y114.166 E10.62111
G1 X162.065 Y114.712 E10.65333
G1 X162.456 Y115.414 E10.69367
G1 X162.732 Y115.983 E10.72544
G1 X163.047 Y116.71 E10.76517
G1 X163.26 Y117.293 E10.79634
G1 X163.495 Y118.031 E10.83518
G1 X163.648 Y118.617 E10.8656
G1 X163.807 Y119.355 E10.90349
G1 X163.9 Y119.937 E10.93308
G1 X163.987 Y120.665 E10.96986
G1 X164.032 Y121.381 E11.00585
G1 X164.045 Y121.941 E11.03399
G1 X164.025 Y122.65 E11.06955
G1 X163.987 Y123.218 E11.09815
G1 X163.9 Y123.946 E11.13491
G1 X163.807 Y124.528 E11.1645
G1 X163.648 Y125.266 E11.20238
G1 X163.495 Y125.852 E11.2328
G1 X163.26 Y126.59 E11.27164
G1 X163.047 Y127.173 E11.30281
G1 X162.732 Y127.9 E11.34254
G1 X162.456 Y128.469 E11.37431
G1 X162.065 Y129.171 E11.41466
G1 X161.727 Y129.717 E11.44688
G1 X161.261 Y130.385 E11.48773
G1 X160.865 Y130.899 E11.52029
G1 X160.33 Y131.518 E11.56138
G1 X159.882 Y131.99 E11.59401
G1 X159.411 Y132.437 E11.62663
G1 X158.791 Y132.973 E11.66772
G1 X158.277 Y133.369 E11.70028
G1 X157.61 Y133.835 E11.74113
G1 X157.064 Y134.172 E11.77335
G1 X156.362 Y134.563 E11.81369
G1 X155.792 Y134.84 E11.84547
G1 X155.065 Y135.154 E11.8852
G1 X154.482 Y135.368 E11.91637
G1 X153.745 Y135.603 E11.95521
G1 X153.158 Y135.756 E11.98563
G1 X152.42 Y135.914 E12.02351
G1 X151.838 Y136.008 E12.0531
G1 X151.11 Y136.094 E12.08988
G1 X150.395 Y136.139 E12.12588
G1 X149.834 Y136.151 E12.15402
G1 X149.127 Y136.133 E12.18952
G1 X148.558 Y136.094 E12.21813
G1 X147.831 Y136.008 E12.25488
G1 X147.249 Y135.914 E12.28447
G1 X146.511 Y135.756 E12.32235
G1 X145.924 Y135.603 E12.35277
G1 X145.187 Y135.368 E12.39161
G1 X144.604 Y135.154 E12.42278
G1 X143.877 Y134.84 E12.46251
G1 X143.307 Y134.563 E12.49429
G1 X142.605 Y134.172 E12.53463
G1 X142.059 Y133.835 E12.56685
G1 X141.392 Y133.369 E12.6077
G1 X140.878 Y132.973 E12.64026
G1 X140.258 Y132.437 E12.68135
G1 X139.787 Y131.99 E12.71398
G1 X139.339 Y131.518 E12.74661
G1 X138.804 Y130.899 E12.78769
G1 X138.408 Y130.385 E12.82026
G1 X137.942 Y129.717 E12.8611
G1 X137.604 Y129.171 E12.89332
G1 X137.213 Y128.469 E12.93367
G1 X136.937 Y127.9 E12.96544
G1 X136.622 Y127.173 E13.00517
G1 X136.409 Y126.59 E13.03634
G1 X136.174 Y125.852 E13.07518
G1 X136.021 Y125.266 E13.1056
G1 X135.862 Y124.528 E13.14349
G1 X135.769 Y123.946 E13.17308
G1 X135.682 Y123.218 E13.20985
G1 X135.637 Y122.502 E13.24585
G1 X135.624 Y121.94 E13.27404
G1 X135.644 Y121.233 E13.30955
G1 X135.682 Y120.665 E13.33815
G1 X135.769 Y119.937 E13.3749
G1 X135.862 Y119.355 E13.40449
G1 X136.021 Y118.617 E13.44238
G1 X136.174 Y118.031 E13.4728
G1 X136.409 Y117.293 E13.51164
G1 X136.622 Y116.71 E13.54281
G1 X136.937 Y115.983 E13.58254
G1 X137.213 Y115.414 E13.61431
G1 X137.604 Y114.712 E13.65466
G1 X137.942 Y114.166 E13.68687
G1 X138.408 Y113.498 E13.72772
G1 X138.767 Y113.032 E13.75728
G1 X138.662 Y112.61 F7800
G92 E0
G1 X130.534 Y105.905
;TYPE:Perimeter
G1 F1800
G1 X131.092 Y105.253 E.04305
G1 X132.089 Y104.192 E.11613
G1 X132.917 Y103.405 E.17348
G1 X134.017 Y102.453 E.24645
G1 X134.918 Y101.76 E.30352
G1 X136.102 Y100.932 E.37603
G1 X137.061 Y100.34 E.43261
G1 X138.309 Y99.644 E.50431
G1 X139.308 Y99.159 E.56004
G1 X140.598 Y98.603 E.63053
G1 X141.621 Y98.227 E.68522
G1 X142.931 Y97.81 E.75421
G1 X143.96 Y97.542 E.80759
G1 X145.27 Y97.261 E.87481
G1 X146.291 Y97.096 E.92672
G1 X147.582 Y96.943 E.99197
G1 X148.581 Y96.875 E1.04222
G1 X149.837 Y96.841 E1.10527
G1 X150.82 Y96.863 E1.15462
G1 X152.089 Y96.943 E1.21845
G1 X153.378 Y97.096 E1.2836
G1 X154.399 Y97.261 E1.33551
G1 X155.709 Y97.542 E1.40273
G1 X156.738 Y97.81 E1.4561
G1 X158.048 Y98.227 E1.52509
G1 X159.071 Y98.603 E1.57979
G1 X160.361 Y99.159 E1.65028
G1 X161.36 Y99.644 E1.706
G1 X162.608 Y100.34 E1.77771
G1 X163.567 Y100.932 E1.83429
G1 X164.751 Y101.76 E1.9068
G1 X165.654 Y102.455 E1.96399
