; generated by PrusaSlicer 2.4.2+win64 on 2023-06-05 at 01:29:34 UTC

; 

; external perimeters extrusion width = 0.45mm
; perimeters extrusion width = 0.45mm
; infill extrusion width = 0.45mm
; solid infill extrusion width = 0.45mm
; top infill extrusion width = 0.40mm
; support material extrusion width = 0.35mm
; first layer extrusion width = 0.42mm

M107
M190 S60 ; set bed temperature and wait for it to be reached
M104 S200 ; set temperature
;TYPE:Custom
G28 ; home all axes
G1 Z5 F5000 ; lift nozzle
M109 S200 ; set temperature and wait for it to be reached
G21 ; set units to millimeters
G90 ; use absolute coordinates
M82 ; use absolute distances for extrusion
G92 E0
; Filament gcode
; G28 ; BLTouch home XYZ axis
G1 X0 Y0 F4000 ; move to X0 Y0
;G92 E0 ; Reset Extruder
G1 Z2.0 F3000 ; Move Z Axis up little to prevent scratching of Heat Bed
G1 X0.1 Y20 Z0.3 F5000.0 ; Move to start position
G1 X0.1 Y200.0 Z0.3 F1500.0 E15 ; Draw the first line
G1 X0.4 Y200.0 Z0.3 F5000.0 ; Move to side a little
G1 X0.4 Y20 Z0.3 F1500.0 E30 ; Draw the second line
G92 E0 ; Reset Extruder
G1 Z2.0 F3000 ; Move Z Axis up little to prevent scratching of Heat Bed
M107
;LAYER_CHANGE
;Z:0.35
;HEIGHT:0.35
G1 Z.35 F7800
G1 E-2 F2400
G92 E0
G1 X101.572 Y125.355 F7800
G1 E2 F2400
;TYPE:Skirt/Brim
;WIDTH:0.42
G1 F1800
G1 X103.944 Y123.522 E2.15048
G1 X106.555 Y121.872 E2.30547
G1 X109.961 Y120.196 E2.49598
G1 X113.009 Y119.09 E2.65869
G1 X116.206 Y118.283 E2.82419
G1 X119.496 Y117.804 E2.99101
G1 X122.513 Y117.655 E3.14263
G1 X178.482 Y117.675 E5.95149
G1 X182.432 Y118.039 E6.15056
G1 X185.689 Y118.714 E6.31748
G1 X188.26 Y119.501 E6.45242
G1 X191.942 Y121.061 E6.65311
G1 X194.837 Y122.696 E6.81996
G1 X197.518 Y124.595 E6.98484
G1 X199.498 Y126.288 E7.11558
G1 X201.722 Y128.563 E7.27526
G1 X204.015 Y131.47 E7.46106
G1 X205.615 Y134.001 E7.61133
G1 X206.94 Y136.592 E7.75739
G1 X208.029 Y139.3 E7.90388
G1 X208.893 Y142.191 E8.0553
G1 X209.495 Y145.232 E8.21085
G1 X209.81 Y148.4 E8.37062
G1 X209.807 Y151.645 E8.53348
G1 X209.564 Y154.28 E8.66629
G1 X208.797 Y158.178 E8.86568
G1 X208.01 Y160.749 E9.00062
G1 X206.734 Y163.845 E9.16866
G1 X204.815 Y167.326 E9.36816
G1 X203.307 Y169.5 E9.50094
G1 X201.223 Y171.987 E9.66378
G1 X198.486 Y174.613 E9.85415
G1 X196.041 Y176.504 E10.00925
G1 X193.51 Y178.104 E10.15953
G1 X190.919 Y179.429 E10.30559
G1 X188.757 Y180.321 E10.42296
G1 X185.901 Y181.232 E10.57342
G1 X182.279 Y181.984 E10.75904
G1 X179.111 Y182.299 E10.9188
G1 X122.514 Y182.345 E13.75922
G1 X118.848 Y182.129 E13.94348
G1 X115.568 Y181.584 E14.11037
G1 X112.401 Y180.717 E14.27514
G1 X109.381 Y179.553 E14.43756
G1 X107.091 Y178.425 E14.56568
G1 X104.439 Y176.818 E14.72131
G1 X102.018 Y175.017 E14.87272
G1 X99.444 Y172.665 E15.0477
G1 X97.494 Y170.493 E15.19423
G1 X96.033 Y168.567 E15.31555
G1 X94.383 Y165.956 E15.47054
G1 X92.958 Y163.13 E15.62938
G1 X91.794 Y160.11 E15.79181
G1 X90.927 Y156.943 E15.95658
G1 X90.382 Y153.663 E16.12347
G1 X90.175 Y150.33 E16.29102
G1 X90.315 Y146.985 E16.45908
G1 X90.794 Y143.695 E16.6259
G1 X91.601 Y140.498 E16.7914
G1 X92.707 Y137.45 E16.9541
G1 X94.086 Y134.58 E17.1139
G1 X95.693 Y131.928 E17.26953
G1 X97.494 Y129.507 E17.42094
G1 X99.444 Y127.335 E17.56747
G1 X101.528 Y125.396 E17.71029
G1 E15.71029 F2400
G92 E0
G1 X156.46 Y156.721 F7800
G1 E2 F2400
;TYPE:Perimeter
G1 F1800
G1 X156.491 Y156.658 E2.00354
G1 X156.91 Y156.114 E2.03798
G1 X157.406 Y155.681 E2.07104
G1 X157.953 Y155.363 E2.10278
G1 X158.583 Y155.149 E2.13617
G1 X159.184 Y155.053 E2.16671
G1 X159.87 Y155.082 E2.2012
G1 X160.549 Y155.253 E2.23631
G1 X161.179 Y155.559 E2.27145
G1 X161.722 Y155.977 E2.30586
G1 X162.155 Y156.475 E2.33895
G1 X162.469 Y157.012 E2.37021
G1 X162.681 Y157.601 E2.4016
G1 X162.783 Y158.253 E2.43471
G1 X162.754 Y158.936 E2.46905
G1 X162.584 Y159.616 E2.50421
G1 X162.278 Y160.246 E2.53937
G1 X161.859 Y160.79 E2.5738
G1 X161.363 Y161.223 E2.60687
G1 X160.822 Y161.537 E2.63825
G1 X160.234 Y161.748 E2.66959
G1 X159.585 Y161.85 E2.7026
G1 X158.9 Y161.821 E2.73699
G1 X158.22 Y161.651 E2.77216
G1 X157.589 Y161.345 E2.80734
G1 X157.047 Y160.926 E2.84174
G1 X156.614 Y160.43 E2.87478
G1 X156.3 Y159.89 E2.90611
G1 X156.088 Y159.302 E2.93747
G1 X155.986 Y158.652 E2.97053
G1 X156.015 Y157.967 E3.00493
G1 X156.185 Y157.288 E3.04005
G1 X156.434 Y156.775 E3.06864
G1 X156.77 Y156.872 F7800
G1 F1800
G1 X157.162 Y156.352 E3.10133
G1 X157.608 Y155.963 E3.13103
G1 X158.097 Y155.679 E3.1594
G1 X158.666 Y155.485 E3.18957
G1 X159.204 Y155.399 E3.2169
G1 X159.82 Y155.425 E3.24788
G1 X160.43 Y155.579 E3.27943
G1 X160.996 Y155.854 E3.31102
G1 X161.484 Y156.229 E3.34193
G1 X161.873 Y156.676 E3.37166
G1 X162.155 Y157.159 E3.39972
G1 X162.345 Y157.687 E3.42787
G1 X162.437 Y158.272 E3.45761
G1 X162.411 Y158.887 E3.48847
G1 X162.258 Y159.498 E3.52007
G1 X161.983 Y160.064 E3.55165
G1 X161.607 Y160.552 E3.5826
G1 X161.161 Y160.941 E3.61231
G1 X160.676 Y161.223 E3.64045
G1 X160.149 Y161.412 E3.66856
G1 X159.565 Y161.504 E3.69823
G1 X158.949 Y161.478 E3.72914
G1 X158.338 Y161.325 E3.76075
G1 X157.772 Y161.05 E3.79234
G1 X157.285 Y160.674 E3.82325
G1 X156.896 Y160.228 E3.85294
G1 X156.614 Y159.744 E3.88106
G1 X156.424 Y159.216 E3.90919
G1 X156.332 Y158.632 E3.93888
G1 X156.358 Y158.016 E3.9698
G1 X156.511 Y157.406 E4.00136
G1 X156.744 Y156.926 E4.02815
G1 X157.081 Y157.023 F7800
;TYPE:External perimeter
G1 F1800
G1 X157.414 Y156.589 E4.05561
G1 X157.81 Y156.245 E4.08195
G1 X158.24 Y155.994 E4.10694
G1 X158.749 Y155.821 E4.13391
G1 X159.224 Y155.745 E4.15803
G1 X159.77 Y155.768 E4.18549
G1 X160.311 Y155.905 E4.21348
G1 X160.814 Y156.148 E4.24152
G1 X161.247 Y156.481 E4.26892
G1 X161.591 Y156.878 E4.2953
G1 X161.841 Y157.306 E4.32015
G1 X162.009 Y157.773 E4.34506
G1 X162.091 Y158.292 E4.37144
G1 X162.068 Y158.837 E4.39882
G1 X161.932 Y159.379 E4.42686
G1 X161.688 Y159.881 E4.45487
G1 X161.355 Y160.315 E4.48233
G1 X160.959 Y160.659 E4.50867
G1 X160.53 Y160.909 E4.53358
G1 X160.063 Y161.076 E4.55847
G1 X159.545 Y161.158 E4.58479
G1 X158.999 Y161.135 E4.61222
G1 X158.457 Y160.999 E4.64026
G1 X157.955 Y160.755 E4.66827
G1 X157.522 Y160.422 E4.69569
G1 X157.178 Y160.026 E4.72203
G1 X156.928 Y159.597 E4.74693
G1 X156.76 Y159.13 E4.77183
G1 X156.678 Y158.612 E4.79816
G1 X156.701 Y158.066 E4.8256
G1 X156.837 Y157.525 E4.85359
G1 X157.054 Y157.077 E4.87858
G1 X156.891 Y156.671 F7800
G1 E2.87858 F2400
G92 E0
G1 X168.176 Y166.486 F7800
G1 E2 F2400
;TYPE:Perimeter
G1 F1800
G1 X168.631 Y166.067 E2.03104
G1 X169.232 Y165.708 E2.06616
G1 X169.892 Y165.479 E2.10126
G1 X170.522 Y165.397 E2.13314
G1 X171.223 Y165.434 E2.16836
G1 X171.834 Y165.595 E2.20007
G1 X172.399 Y165.861 E2.23141
G1 X172.932 Y166.249 E2.26448
G1 X173.396 Y166.754 E2.29888
G1 X173.756 Y167.355 E2.33406
G1 X173.984 Y168.017 E2.36922
G1 X174.073 Y168.696 E2.4036
G1 X174.028 Y169.354 E2.4367
G1 X173.868 Y169.957 E2.46797
G1 X173.603 Y170.522 E2.49931
G1 X173.215 Y171.055 E2.53237
G1 X172.71 Y171.52 E2.56681
G1 X172.109 Y171.879 E2.60196
G1 X171.447 Y172.109 E2.63714
G1 X170.767 Y172.196 E2.67155
G1 X170.111 Y172.151 E2.70455
G1 X169.506 Y171.992 E2.73592
G1 X168.941 Y171.726 E2.76727
G1 X168.408 Y171.338 E2.80034
G1 X167.944 Y170.833 E2.83474
G1 X167.584 Y170.232 E2.86992
G1 X167.356 Y169.57 E2.90508
G1 X167.267 Y168.891 E2.93945
G1 X167.312 Y168.233 E2.97254
G1 X167.472 Y167.628 E3.00393
G1 X167.739 Y167.064 E3.03525
G1 X168.132 Y166.527 E3.06864
G1 X168.41 Y166.74 F7800
G1 F1800
G1 X168.838 Y166.345 E3.09788
G1 X169.378 Y166.023 E3.12945
G1 X169.972 Y165.816 E3.16099
G1 X170.535 Y165.743 E3.18951
G1 X171.169 Y165.777 E3.22137
G1 X171.715 Y165.92 E3.24971
G1 X172.222 Y166.16 E3.27783
G1 X172.701 Y166.508 E3.30755
G1 X173.118 Y166.961 E3.33846
G1 X173.442 Y167.501 E3.37006
G1 X173.647 Y168.096 E3.40166
G1 X173.726 Y168.707 E3.43256
G1 X173.686 Y169.298 E3.46228
G1 X173.543 Y169.838 E3.49034
G1 X173.305 Y170.346 E3.51846
G1 X172.956 Y170.824 E3.54816
G1 X172.503 Y171.242 E3.57911
G1 X171.963 Y171.565 E3.61069
G1 X171.368 Y171.771 E3.6423
G1 X170.756 Y171.849 E3.67322
G1 X170.167 Y171.809 E3.70288
G1 X169.624 Y171.667 E3.73102
G1 X169.118 Y171.427 E3.75913
G1 X168.639 Y171.079 E3.78885
G1 X168.222 Y170.626 E3.81976
G1 X167.898 Y170.086 E3.85137
G1 X167.693 Y169.491 E3.88296
G1 X167.614 Y168.88 E3.91386
G1 X167.654 Y168.289 E3.94358
G1 X167.798 Y167.747 E3.97173
G1 X168.037 Y167.241 E3.99983
G1 X168.369 Y166.784 E4.02818
G1 X168.643 Y166.994 F7800
;TYPE:External perimeter
G1 F1800
G1 X169.046 Y166.623 E4.05563
G1 X169.525 Y166.337 E4.08364
G1 X170.051 Y166.154 E4.11163
G1 X170.548 Y166.089 E4.13677
G1 X171.116 Y166.119 E4.16528
G1 X171.597 Y166.246 E4.19027
G1 X172.046 Y166.458 E4.21515
G1 X172.47 Y166.766 E4.24152
G1 X172.84 Y167.169 E4.26893
G1 X173.127 Y167.648 E4.29697
G1 X173.309 Y168.176 E4.325
G1 X173.38 Y168.718 E4.35242
G1 X173.344 Y169.241 E4.37877
G1 X173.217 Y169.72 E4.40362
G1 X173.007 Y170.169 E4.42852
G1 X172.698 Y170.593 E4.45486
G1 X172.295 Y170.964 E4.48231
G1 X171.816 Y171.25 E4.51032
G1 X171.288 Y171.434 E4.53836
G1 X170.746 Y171.503 E4.56579
G1 X170.223 Y171.467 E4.59211
G1 X169.743 Y171.341 E4.61702
G1 X169.294 Y171.129 E4.6419
G1 X168.87 Y170.821 E4.66827
G1 X168.5 Y170.418 E4.69568
G1 X168.213 Y169.939 E4.72372
G1 X168.031 Y169.411 E4.75175
G1 X167.96 Y168.869 E4.77917
G1 X167.996 Y168.346 E4.80552
G1 X168.123 Y167.866 E4.83043
G1 X168.335 Y167.417 E4.85531
G1 X168.608 Y167.042 E4.87862
G1 X168.519 Y166.614 F7800
G1 E2.87862 F2400
G92 E0
G1 X182.59 Y167.711 F7800
G1 E2 F2400
;TYPE:Perimeter
G1 F1800
G1 X182.593 Y167.64 E2.00357
G1 X182.764 Y166.961 E2.03869
G1 X183.07 Y166.331 E2.07382
G1 X183.488 Y165.788 E2.10824
G1 X183.986 Y165.355 E2.14133
G1 X184.53 Y165.038 E2.17295
G1 X185.161 Y164.822 E2.20644
G1 X185.764 Y164.727 E2.23705
G1 X186.447 Y164.756 E2.27139
G1 X187.127 Y164.926 E2.30655
G1 X187.757 Y165.232 E2.34171
G1 X188.301 Y165.651 E2.37614
G1 X188.734 Y166.147 E2.40921
G1 X189.048 Y166.688 E2.44059
G1 X189.259 Y167.276 E2.47193
G1 X189.361 Y167.925 E2.50494
G1 X189.332 Y168.61 E2.53934
G1 X189.162 Y169.29 E2.57451
G1 X188.856 Y169.921 E2.60968
G1 X188.437 Y170.463 E2.64408
G1 X187.941 Y170.896 E2.67712
G1 X187.401 Y171.21 E2.70846
G1 X186.813 Y171.422 E2.73981
G1 X186.163 Y171.524 E2.77287
G1 X185.478 Y171.495 E2.80727
G1 X184.799 Y171.325 E2.8424
G1 X184.169 Y171.019 E2.87754
G1 X183.625 Y170.6 E2.91197
G1 X183.192 Y170.104 E2.94504
G1 X182.878 Y169.563 E2.97642
G1 X182.668 Y168.976 E3.00771
G1 X182.564 Y168.326 E3.04074
G1 X182.587 Y167.771 E3.06864
G1 X182.934 Y167.725 F7800
G1 F1800
G1 X183.09 Y167.08 E3.10195
G1 X183.365 Y166.514 E3.13354
G1 X183.74 Y166.026 E3.16445
G1 X184.187 Y165.637 E3.19418
G1 X184.674 Y165.353 E3.22246
G1 X185.244 Y165.158 E3.2527
G1 X185.783 Y165.073 E3.28009
G1 X186.398 Y165.099 E3.31095
G1 X187.009 Y165.252 E3.34255
G1 X187.575 Y165.527 E3.37413
G1 X188.063 Y165.903 E3.40508
G1 X188.452 Y166.349 E3.43479
G1 X188.734 Y166.834 E3.46293
G1 X188.923 Y167.361 E3.49104
G1 X189.015 Y167.945 E3.52071
G1 X188.989 Y168.561 E3.55162
G1 X188.836 Y169.172 E3.58323
G1 X188.561 Y169.738 E3.61482
G1 X188.185 Y170.225 E3.64573
G1 X187.739 Y170.614 E3.67542
G1 X187.255 Y170.896 E3.70354
G1 X186.727 Y171.086 E3.73167
G1 X186.143 Y171.178 E3.76136
G1 X185.527 Y171.152 E3.79228
G1 X184.917 Y170.999 E3.82384
G1 X184.351 Y170.724 E3.85541
G1 X183.863 Y170.348 E3.88636
G1 X183.474 Y169.902 E3.91606
G1 X183.192 Y169.417 E3.94421
G1 X183.003 Y168.89 E3.97229
G1 X182.91 Y168.306 E4.00197
G1 X182.932 Y167.785 E4.02814
G1 X183.279 Y167.74 F7800
;TYPE:External perimeter
G1 F1800
G1 X183.416 Y167.199 E4.05614
G1 X183.659 Y166.696 E4.08418
G1 X183.992 Y166.263 E4.11158
G1 X184.389 Y165.919 E4.13796
G1 X184.818 Y165.668 E4.16289
G1 X185.327 Y165.494 E4.1899
G1 X185.803 Y165.419 E4.21406
G1 X186.348 Y165.442 E4.24144
G1 X186.89 Y165.578 E4.26948
G1 X187.392 Y165.822 E4.29749
G1 X187.826 Y166.155 E4.32495
G1 X188.17 Y166.551 E4.35129
G1 X188.42 Y166.98 E4.3762
G1 X188.587 Y167.447 E4.40109
G1 X188.669 Y167.965 E4.42741
G1 X188.646 Y168.511 E4.45484
G1 X188.51 Y169.053 E4.48288
G1 X188.266 Y169.555 E4.51089
G1 X187.933 Y169.988 E4.53831
G1 X187.537 Y170.332 E4.56465
G1 X187.108 Y170.582 E4.58955
G1 X186.641 Y170.75 E4.61445
G1 X186.123 Y170.832 E4.64078
G1 X185.577 Y170.809 E4.66822
G1 X185.036 Y170.673 E4.69621
G1 X184.534 Y170.429 E4.72421
G1 X184.1 Y170.096 E4.75167
G1 X183.756 Y169.7 E4.77802
G1 X183.506 Y169.271 E4.80293
G1 X183.339 Y168.804 E4.8278
G1 X183.256 Y168.286 E4.85413
G1 X183.277 Y167.8 E4.87858
G1 X182.966 Y167.491 F7800
G1 E2.87858 F2400
G92 E0
G1 X193.542 Y158.818 F7800
G1 E2 F2400
;TYPE:Perimeter
G1 F1800
G1 X193.219 Y158.278 E2.03154
G1 X192.99 Y157.618 E2.06664
G1 X192.901 Y156.937 E2.10112
G1 X192.947 Y156.28 E2.13416
G1 X193.106 Y155.676 E2.16549
G1 X193.372 Y155.111 E2.19683
G1 X193.76 Y154.578 E2.22991
G1 X194.265 Y154.114 E2.2643
G1 X194.866 Y153.754 E2.29948
G1 X195.528 Y153.526 E2.33464
G1 X196.156 Y153.444 E2.36643
G1 X196.858 Y153.48 E2.4017
G1 X197.468 Y153.642 E2.43335
G1 X198.033 Y153.907 E2.46469
G1 X198.566 Y154.295 E2.49775
G1 X199.031 Y154.8 E2.5322
G1 X199.39 Y155.401 E2.56734
G1 X199.62 Y156.063 E2.60253
G1 X199.707 Y156.743 E2.63693
G1 X199.662 Y157.399 E2.66993
G1 X199.503 Y158.004 E2.7013
G1 X199.237 Y158.569 E2.73265
G1 X198.849 Y159.102 E2.76572
G1 X198.344 Y159.566 E2.80012
G1 X197.743 Y159.926 E2.8353
G1 X197.081 Y160.154 E2.87046
G1 X196.402 Y160.243 E2.90484
G1 X195.744 Y160.198 E2.93792
G1 X195.139 Y160.038 E2.96931
G1 X194.575 Y159.771 E3.00063
G1 X194.043 Y159.384 E3.03363
G1 X193.572 Y158.87 E3.06864
G1 X193.838 Y158.641 F7800
G1 F1800
G1 X193.534 Y158.132 E3.09841
G1 X193.327 Y157.538 E3.12995
G1 X193.248 Y156.926 E3.16091
G1 X193.289 Y156.336 E3.1906
G1 X193.431 Y155.794 E3.21872
G1 X193.671 Y155.288 E3.24683
G1 X194.019 Y154.809 E3.27655
G1 X194.472 Y154.392 E3.30746
G1 X195.012 Y154.068 E3.33907
G1 X195.607 Y153.863 E3.37066
G1 X196.17 Y153.79 E3.39911
G1 X196.804 Y153.823 E3.43101
G1 X197.349 Y153.967 E3.45931
G1 X197.857 Y154.205 E3.48743
G1 X198.335 Y154.554 E3.51713
G1 X198.753 Y155.007 E3.54807
G1 X199.076 Y155.547 E3.57965
G1 X199.282 Y156.142 E3.61126
G1 X199.36 Y156.754 E3.64218
G1 X199.32 Y157.343 E3.67184
G1 X199.178 Y157.886 E3.69998
G1 X198.938 Y158.392 E3.7281
G1 X198.59 Y158.871 E3.75782
G1 X198.137 Y159.288 E3.78872
G1 X197.597 Y159.612 E3.82033
G1 X197.002 Y159.817 E3.85192
G1 X196.391 Y159.896 E3.88282
G1 X195.8 Y159.856 E3.91254
G1 X195.258 Y159.712 E3.94069
G1 X194.752 Y159.473 E3.96879
G1 X194.274 Y159.125 E3.99845
G1 X193.873 Y158.69 E4.02818
G1 X194.134 Y158.464 F7800
;TYPE:External perimeter
G1 F1800
G1 X193.848 Y157.985 E4.05619
G1 X193.665 Y157.459 E4.08417
G1 X193.594 Y156.916 E4.11162
G1 X193.631 Y156.393 E4.13796
G1 X193.757 Y155.913 E4.16285
G1 X193.969 Y155.464 E4.18774
G1 X194.277 Y155.04 E4.2141
G1 X194.68 Y154.67 E4.24152
G1 X195.159 Y154.383 E4.26956
G1 X195.687 Y154.201 E4.29758
G1 X196.183 Y154.136 E4.3227
G1 X196.751 Y154.165 E4.35123
G1 X197.231 Y154.293 E4.37617
G1 X197.68 Y154.503 E4.40107
G1 X198.104 Y154.812 E4.4274
G1 X198.475 Y155.215 E4.45485
G1 X198.761 Y155.694 E4.48286
G1 X198.945 Y156.222 E4.51091
G1 X199.014 Y156.764 E4.53833
G1 X198.978 Y157.287 E4.56466
G1 X198.852 Y157.767 E4.58956
G1 X198.64 Y158.216 E4.61445
G1 X198.332 Y158.64 E4.64081
G1 X197.929 Y159.01 E4.66823
G1 X197.45 Y159.297 E4.69627
G1 X196.922 Y159.479 E4.72429
G1 X196.38 Y159.55 E4.75171
G1 X195.857 Y159.514 E4.77806
G1 X195.377 Y159.387 E4.80298
G1 X194.928 Y159.175 E4.82786
G1 X194.505 Y158.867 E4.85418
G1 X194.175 Y158.508 E4.87862
G1 X193.737 Y158.51 F7800
G1 E2.87862 F2400
G92 E0
G1 X195.222 Y144.921 F7800
G1 E2 F2400
;TYPE:Perimeter
G1 F1800
G1 X195.151 Y144.918 E2.00357
G1 X194.472 Y144.747 E2.03869
G1 X193.842 Y144.441 E2.07382
G1 X193.299 Y144.023 E2.10824
G1 X192.866 Y143.525 E2.14133
G1 X192.552 Y142.988 E2.17259
G1 X192.34 Y142.399 E2.20397
G1 X192.238 Y141.747 E2.23709
G1 X192.267 Y141.064 E2.27142
G1 X192.437 Y140.384 E2.30659
G1 X192.743 Y139.754 E2.34174
